X:1
T:Alexander's Ragtime Band
T:Alexander's Ragtime Band
L:1/8
M:4/4
K:C
V:1 treble nm="Piano" snm="Pno."
V:1
 z3/2 _E/ =E>_E |"C" E4"G" z3/2 _E/ =E>^D |"Am" E4"Em" z2 E>^D |"Dm" E2 D2"G" B, G,2"C" C- | %4
w: C'- mon and|hear, c' mon and|hear, A- le-|xan- der's rag- time band,|
"C7" C4 z3/2 ^G/ A>G |"F" A4"Em" z3/2 ^G/ A>G |"Dm" A4"C" z2 A>G |"F" A2 F2"Em" C F2"Dm" A- | %8
w: * C' mon and|hear, c' mon and|hear, it's the|best band in the land!|
"G" A4 z2 E>F |"C" G>G A>E G2 A>E | G>G A>E G2"F" z2 |"C" C2 E>G, C2 E>G, | C>C E>G, C2 z2 | %13
w: * They can|play a bu- gle call like you've|ne- ver heard be- fore,|so na- tu- ral that you'll|want to go to war,|
"D" z2 D2 D3 E/"D7"^F/- | F D2 E- E ^F2"G" G- | G2 z2 z2 E2 |"Dm" F3/2 E2"G" D/- D/ z ^D/ E>D | %17
w: that's just the bes|* test band * what am,|* my|ho- ney lamb, * C' mon a-|
"C" E4"G" z3/2 ^D/ E>_E |"Am" E4"Em" z2 E>^D |"Dm" E2 D2"G" B, G,2"C" C- |"C7" C4 z3/2 ^G/ A>G | %21
w: long, c' mon a-|long, let me|take you by the hand,|* Up to the|
"F" A4"Em" z3/2 ^G/ A>G |"Dm" A4"C" z2 A>G |"F" A2 F2"Em" C F2"Dm" A- |"G" A4 z3/2 F/ E>F | %25
w: man, up to the|man, who's the|lea- der of the band,|* and if you|
"C" G2 G2 G2 E2 |"C7" D C3 E D3 |"F" C4 c4 |"D" A2 c2 z3/2 ^F/ G>F |"C" G4"G" z3/2 ^F/ G>F | %30
w: care to hear that|Swa- nee Ri- ver|played in|rag- time, c' mon and|hear, c' mon and|
"Am" G4"Em" z2 A>G |"F" A2 G2"G" E E2"C" C- |"F""C" C4"F""C" z4 |] %33
w: hear A- le-|xan- der's rag- time band!||

